Costumes/Z-glow.svg

<?xml version="1.0" encoding="UTF-8" standalone="no"?>
<svg
   version="1.1"
   width="60.753204"
   height="78.610001"
   id="svg8"
   sodipodi:docname="Z-glow.svg"
   xmlns:inkscape="http://www.inkscape.org/namespaces/inkscape"
   xmlns:sodipodi="http://sodipodi.sourceforge.net/DTD/sodipodi-0.dtd"
   xmlns="http://www.w3.org/2000/svg"
   xmlns:svg="http://www.w3.org/2000/svg">
  <defs
     id="defs12" />
  <sodipodi:namedview
     id="namedview10"
     pagecolor="#ffffff"
     bordercolor="#000000"
     borderopacity="0.25"
     inkscape:showpageshadow="2"
     inkscape:pageopacity="0.0"
     inkscape:pagecheckerboard="0"
     inkscape:deskcolor="#d1d1d1" />
  <!-- Exported by Scratch - http://scratch.mit.edu/ -->
  <g
     id="ID0.7990386625751853"
     transform="translate(-3.0312651e-4)">
    <g
       id="ID0.0772585030645132">
      <g
         id="ID0.2932801190763712">
        <path
           id="ID0.20556301018223166"
           fill="#00cccc"
           d="m 58.691,71.09 c -0.04,0.06 -0.07,0.12 -0.1,0.18 -2.46,4.29 -6.94,6.76 -12.27,6.76 -0.93,0 -1.98,-0.1 -3.62,-0.33 -0.5,-0.07 -0.78,-0.1 -0.9,-0.11 l -7.55,0.17 c -2.34,0.06 -5.69,0.14 -10.04,0.26 -0.71,0.05 -2.37,0.17 -6.22,0.49 -0.72,0.07 -1.43,0.1 -2.09,0.1 -2,0 -3.78,-0.29 -5.43,-0.89 -2.32,-0.83 -4.45,-2.31 -6.5,-4.51 -3.17,-3.39 -4.53,-7.77 -3.76,-12.05 0.56,-3.21 2.33,-5.58 3.63,-7.1 0.04,-0.04 0.08,-0.09 0.12,-0.13 0.41,-0.47 0.74,-0.83 1,-1.12 1.64,-2.81 3.95,-6.68 6.86,-11.53 0.02,-0.04 0.05,-0.08 0.07,-0.11 0.01,-0.02 0.02,-0.03 0.02,-0.04 -1.15,-0.34 -2.25,-0.82 -3.27,-1.43 -2.97,-1.77 -6.45,-5.45 -6.65,-13.01 -0.01,-0.1 -0.01,-0.2 -0.01,-0.3 v -7.12 c 0,-0.28 0.01,-0.56 0.03,-0.83 0,-0.02 0.03,-0.36 0.01,-1.28 C 1.171,12 2.701,7.26 6.331,4 c 2.03,-1.82 5.58,-4 10.96,-4 1.86,0 4.49,0.15 8.04,0.47 3.82,0.3 6.27,0.49 7.38,0.58 h 7.51 c 1.41,-0.07 2.53,-0.05 3.58,0.03 1.62,0.12 3.31,0.41 5.01,0.87 2.71,0.72 5.12,2.34 7.18,4.8 0.52,0.63 0.97,1.31 1.35,2.03 0.44,0.67 0.8,1.38 1.09,2.12 1.03,2.68 1.65,7.02 -1.3,12.45 -0.03,0.04 -0.05,0.08 -0.07,0.12 -1.36,2.44 -2.72,4.72 -4.06,6.81 2.67,1.51 4.68,3.96 5.78,7.07 l 0.47,1.25 c 0.47,1.24 0.71,2.56 0.71,3.89 v 5.27 c 0,0.07 0,0.14 -0.01,0.2 -0.04,2.77 0.02,6.76 0.2,11.88 0.85,2.62 1.14,6.52 -1.46,11.25 z" />
      </g>
    </g>
    <g
       id="ID0.1001403839327395">
      <path
         id="ID0.6049201069399714"
         fill="#ffffff"
         d="m 49.661,63.158 c 0.233,0.587 0.029,1.466 -0.615,2.639 -0.471,0.821 -1.379,1.231 -2.728,1.231 -0.352,0 -1.041,-0.073 -2.066,-0.22 -1.027,-0.146 -1.834,-0.221 -2.419,-0.221 l -7.828,0.176 c -2.405,0.06 -5.836,0.147 -10.292,0.265 -0.938,0.059 -3.166,0.234 -6.685,0.527 -1.231,0.117 -2.17,0.058 -2.814,-0.176 -0.646,-0.233 -1.379,-0.792 -2.199,-1.671 -0.822,-0.88 -1.144,-1.76 -0.968,-2.64 0.058,-0.409 0.439,-1.025 1.144,-1.847 0.938,-1.058 1.495,-1.674 1.671,-1.852 1.642,-2.82 4.104,-6.963 7.389,-12.427 2.756,-4.465 5.131,-8.078 7.125,-10.84 1.993,-2.762 3.987,-5.524 5.981,-8.286 3.343,-4.583 5.658,-8.049 6.948,-10.4 -0.586,-0.176 -1.378,-0.264 -2.374,-0.264 H 32.95 c -0.88,0 -2.361,-0.029 -4.442,-0.088 -2.082,-0.058 -3.65,-0.088 -4.706,-0.088 -2.287,0 -3.665,0.059 -4.134,0.176 -0.176,0.059 -0.279,0.323 -0.308,0.791 -0.03,0.471 -0.104,1.32 -0.22,2.552 0.058,-0.117 0.204,1.262 0.439,4.134 0,0.294 0.117,0.938 0.352,1.936 0.176,0.703 0.205,1.231 0.088,1.583 -0.176,0.646 -0.352,1.026 -0.527,1.144 -0.88,0.938 -2.054,1.407 -3.519,1.407 -0.646,0 -1.202,-0.146 -1.671,-0.439 -0.822,-0.469 -1.262,-1.76 -1.319,-3.871 0,-1.7 0,-4.074 0,-7.124 0.058,-0.762 0.058,-1.876 0,-3.343 -0.411,-1.7 -0.177,-2.947 0.703,-3.738 0.88,-0.792 2.081,-1.188 3.606,-1.188 1.524,0 3.899,0.146 7.125,0.439 4.574,0.352 7.183,0.559 7.828,0.616 1.349,0 3.167,0 5.454,0 0.645,0 1.583,0 2.814,0 0.996,-0.058 1.816,-0.058 2.463,0 0.938,0.059 1.935,0.234 2.99,0.526 0.469,0.116 0.997,0.524 1.583,1.226 0.117,0.293 0.322,0.644 0.616,1.053 0.293,0.76 0.058,1.841 -0.704,3.242 -1.994,3.565 -3.929,6.69 -5.805,9.379 -2.405,3.155 -5.688,7.713 -9.852,13.673 -1.701,2.454 -4.164,6.224 -7.389,11.307 -0.938,1.694 -2.375,4.235 -4.311,7.625 -0.118,0.233 -0.146,0.468 -0.088,0.701 0.234,0.352 0.557,0.526 0.968,0.526 2.932,0.118 6.655,0.146 11.171,0.088 6.45,-0.117 10.203,-0.176 11.259,-0.176 -0.059,-2.873 0,-6.89 0.176,-12.051 0,-0.586 -0.074,-1.597 -0.22,-3.035 -0.147,-1.436 -0.22,-2.447 -0.22,-3.034 0,-2.404 0.938,-3.519 2.814,-3.343 0.352,-0.058 0.82,-0.058 1.407,0 0.469,0.176 0.821,0.616 1.056,1.319 0.176,0.471 0.352,0.939 0.528,1.407 v 5.278 c -0.06,3.284 0.028,8.004 0.264,14.161 0.002,0.121 0.148,0.531 0.442,1.235 z" />
    </g>
  </g>
</svg>

<svg version="1.1" width="61" height="79" xmlns="http://www.w3.org/2000/svg" xmlns:xlink="http://www.w3.org/1999/xlink">
  <!-- Exported by Scratch - http://scratch.mit.edu/ -->
  <g id="ID0.7990386625751853">
    <g id="ID0.0772585030645132">
      <g id="ID0.2932801190763712">
        <path id="ID0.20556301018223166" fill="#00CCCC" d="M 58.691 71.090 C 58.651 71.150 58.621 71.210 58.591 71.270 C 56.131 75.560 51.651 78.030 46.321 78.030 C 45.391 78.030 44.341 77.930 42.701 77.700 C 42.201 77.630 41.921 77.600 41.801 77.590 L 34.251 77.760 C 31.911 77.820 28.561 77.900 24.211 78.020 C 23.501 78.070 21.841 78.190 17.991 78.510 C 17.271 78.580 16.561 78.610 15.901 78.610 C 13.901 78.610 12.121 78.320 10.471 77.720 C 8.151 76.890 6.021 75.410 3.971 73.210 C 0.801 69.820 -0.559 65.440 0.211 61.160 C 0.771 57.950 2.541 55.580 3.841 54.060 C 3.881 54.020 3.921 53.970 3.961 53.930 C 4.371 53.460 4.701 53.100 4.961 52.810 C 6.601 50 8.911 46.130 11.821 41.280 C 11.841 41.240 11.871 41.200 11.891 41.170 C 11.901 41.150 11.911 41.140 11.911 41.130 C 10.761 40.790 9.661 40.310 8.641 39.700 C 5.671 37.930 2.191 34.250 1.991 26.690 C 1.981 26.590 1.981 26.490 1.981 26.390 L 1.981 19.270 C 1.981 18.990 1.991 18.710 2.011 18.440 C 2.011 18.420 2.041 18.080 2.021 17.160 C 1.171 12 2.701 7.260 6.331 4 C 8.361 2.180 11.911 0 17.291 0 C 19.151 0 21.781 0.150 25.331 0.470 C 29.151 0.770 31.601 0.960 32.711 1.050 L 40.221 1.050 C 41.631 0.980 42.751 1 43.801 1.080 C 45.421 1.200 47.111 1.490 48.811 1.950 C 51.521 2.670 53.931 4.290 55.991 6.750 C 56.511 7.380 56.961 8.060 57.341 8.780 C 57.781 9.450 58.141 10.160 58.431 10.900 C 59.461 13.580 60.081 17.920 57.131 23.350 C 57.101 23.390 57.081 23.430 57.061 23.470 C 55.701 25.910 54.341 28.190 53.001 30.280 C 55.671 31.790 57.681 34.240 58.781 37.350 L 59.251 38.600 C 59.721 39.840 59.961 41.160 59.961 42.490 L 59.961 47.760 C 59.961 47.830 59.961 47.900 59.951 47.960 C 59.911 50.730 59.971 54.720 60.151 59.840 C 61.001 62.460 61.291 66.360 58.691 71.090 Z "/>
      </g>
    </g>
    <g id="ID0.1001403839327395">
      <path id="ID0.6049201069399714" fill="#FFFFFF" d="M 49.661 63.158 C 49.894 63.745 49.690 64.624 49.046 65.797 C 48.575 66.618 47.667 67.028 46.318 67.028 C 45.966 67.028 45.277 66.955 44.252 66.808 C 43.225 66.662 42.418 66.587 41.833 66.587 L 34.005 66.763 C 31.600 66.823 28.169 66.910 23.713 67.028 C 22.775 67.087 20.547 67.262 17.028 67.555 C 15.797 67.672 14.858 67.613 14.214 67.379 C 13.568 67.146 12.835 66.587 12.015 65.708 C 11.193 64.828 10.871 63.948 11.047 63.068 C 11.105 62.659 11.486 62.043 12.191 61.221 C 13.129 60.163 13.686 59.547 13.862 59.369 C 15.504 56.549 17.966 52.406 21.251 46.942 C 24.007 42.477 26.382 38.864 28.376 36.102 C 30.369 33.340 32.363 30.578 34.357 27.816 C 37.700 23.233 40.015 19.767 41.305 17.416 C 40.719 17.240 39.927 17.152 38.931 17.152 L 32.950 17.152 C 32.070 17.152 30.589 17.123 28.508 17.064 C 26.426 17.006 24.858 16.976 23.802 16.976 C 21.515 16.976 20.137 17.035 19.668 17.152 C 19.492 17.211 19.389 17.475 19.360 17.943 C 19.330 18.414 19.256 19.263 19.140 20.495 C 19.198 20.378 19.344 21.757 19.579 24.629 C 19.579 24.923 19.696 25.567 19.931 26.565 C 20.107 27.268 20.136 27.796 20.019 28.148 C 19.843 28.794 19.667 29.174 19.492 29.292 C 18.612 30.230 17.438 30.699 15.973 30.699 C 15.327 30.699 14.771 30.553 14.302 30.260 C 13.480 29.791 13.040 28.500 12.983 26.389 C 12.983 24.689 12.983 22.315 12.983 19.265 C 13.041 18.503 13.041 17.389 12.983 15.922 C 12.572 14.222 12.806 12.975 13.686 12.184 C 14.566 11.392 15.767 10.996 17.292 10.996 C 18.816 10.996 21.191 11.142 24.417 11.435 C 28.991 11.787 31.600 11.994 32.245 12.051 C 33.594 12.051 35.412 12.051 37.699 12.051 C 38.344 12.051 39.282 12.051 40.513 12.051 C 41.509 11.993 42.329 11.993 42.976 12.051 C 43.914 12.110 44.911 12.285 45.966 12.577 C 46.435 12.693 46.963 13.101 47.549 13.803 C 47.666 14.096 47.871 14.447 48.165 14.856 C 48.458 15.616 48.223 16.697 47.461 18.098 C 45.467 21.663 43.532 24.788 41.656 27.477 C 39.251 30.632 35.968 35.190 31.804 41.150 C 30.103 43.604 27.640 47.374 24.415 52.457 C 23.477 54.151 22.040 56.692 20.104 60.082 C 19.986 60.315 19.958 60.550 20.016 60.783 C 20.250 61.135 20.573 61.309 20.984 61.309 C 23.916 61.427 27.639 61.455 32.155 61.397 C 38.605 61.280 42.358 61.221 43.414 61.221 C 43.355 58.348 43.414 54.331 43.590 49.170 C 43.590 48.584 43.516 47.573 43.370 46.135 C 43.223 44.699 43.150 43.688 43.150 43.101 C 43.150 40.697 44.088 39.582 45.964 39.758 C 46.316 39.700 46.784 39.700 47.371 39.758 C 47.840 39.934 48.192 40.374 48.427 41.077 C 48.603 41.548 48.779 42.016 48.955 42.484 L 48.955 47.762 C 48.895 51.046 48.983 55.766 49.219 61.923 C 49.221 62.044 49.367 62.454 49.661 63.158 Z "/>
    </g>
  </g>
</svg>
